X:1
T:Bridgewater (Wesley), 88.88.88
T:Bridgewater (Wesley), 88.88.88
T:Samuel Sebastian Wesley, 1864
T:Public Domain Courtesy of the Cyber Hymnal™
C:Samuel Sebastian Wesley, 1864
Z:Public Domain
Z:Courtesy of the Cyber Hymnal™
%%score ( 1 2 ) ( 3 4 )
L:1/8
Q:1/4=107
M:4/4
K:F
V:1 treble 
V:2 treble 
V:3 bass 
V:4 bass 
V:1
 [CF]2 | [CA]2 [FB]2 [Ec]2 [CA]2 | [FB]2 [Fc]2 [Fd]2 [Fd]2 | [Fc]2 [EA]2 [FB]2 [Gc]2 x8 | %4
 [Cc]2 F2 [EG]2 [EG]2 | [FA]2 [Gc]2 [G=B]2 [Gc]2 | [Ad]2 d2 [Ec]2 [Ec]2 | [Ff]2 [Ge]2 [Fd]2 [FA]2 | %8
 [FB]2 [Ec]2 [FA]2 [FA]2 | [Fc]2 [FB]2 [EG]2 [GB]2 | [GA]2 [^FA]2 [DG]2 [EG]2 | %11
 [FA]2 [FB]2 [Fc]2 F2 | [FA]2 [EG]2 F4 |] %13
V:2
 x2 | x8 | x8 | x16 | x2 F2 x4 | x8 | x2 (GF) x4 | x8 | x8 | x8 | x8 | x6 F2 | x4 F4 |] %13
V:3
 [F,A,]2 | [F,C]2 [D,B,]2 [C,G,]2 F,2 | [D,F,]2 [F,A,]2 [B,,B,]2 [B,,B,]2 | %3
 [A,,C]2 [C,C]2 (B,A,) [E,G,]2 [F,A,]2 [D,=B,]2 [C,C]2 [C,C]2 | [F,C]2 [E,C]2 [D,D]2 [C,E]2 | %5
 (DC) [G,=B,]2 [C,C]2 [C,C]2 | [A,,C]2 [C,C]2 [D,A,]2 [F,D]2 | [G,D]2 [C,C]2 [F,C]2 [D,D]2 | %8
 [A,,C]2 [B,,D]2 [C,C]2 [B,,D]2 | [D,D]2 [D,D]2 [G,B,]2 [C,C]2 | [F,C]2 [D,F,]2 [A,,C]2 [B,,D]2 | %11
 [C,C]2 (CB,) [F,A,]4 | x8 |] %13
V:4
 x2 | x6 F,2 | x8 | x4 D,2 x10 | x8 | F,2 x6 | x8 | x8 | x8 | x8 | x8 | x2 C,2 x4 | x8 |] %13

